static/img/kroki/78fc8ae42a8aa6222a7c50c3b0570247.svg

<?xml version="1.0" encoding="us-ascii" standalone="no"?><svg xmlns="http://www.w3.org/2000/svg" xmlns:xlink="http://www.w3.org/1999/xlink" contentStyleType="text/css" height="895px" preserveAspectRatio="none" style="width:334px;height:895px;" version="1.1" viewBox="0 0 334 895" width="334px" zoomAndPan="magnify"><defs/><g><!--class gcp_disk_type--><g id="elem_gcp_disk_type"><rect codeLine="23" fill="#3D176E" height="39.7891" id="gcp_disk_type" rx="2.5" ry="2.5" style="stroke:#000D19;stroke-width:0.5;" width="158" x="50" y="849.73"/><ellipse cx="65" cy="869.6245" fill="#ADD1B2" rx="11" ry="11" style="stroke:#181818;stroke-width:1.0;"/><path d="M67.9688,875.2652 Q67.3906,875.562 66.75,875.7027 Q66.1094,875.8589 65.4063,875.8589 Q62.9063,875.8589 61.5781,874.2183 Q60.2656,872.562 60.2656,869.437 Q60.2656,866.312 61.5781,864.6558 Q62.9063,862.9995 65.4063,862.9995 Q66.1094,862.9995 66.75,863.1558 Q67.4063,863.312 67.9688,863.6089 L67.9688,866.3277 Q67.3438,865.7495 66.75,865.4839 Q66.1563,865.2027 65.5313,865.2027 Q64.1875,865.2027 63.5,866.2808 Q62.8125,867.3433 62.8125,869.437 Q62.8125,871.5308 63.5,872.6089 Q64.1875,873.6714 65.5313,873.6714 Q66.1563,873.6714 66.75,873.4058 Q67.3438,873.1245 67.9688,872.5464 L67.9688,875.2652 Z " fill="#000000"/><text fill="#D9B8FF" font-family="Helvetica" font-size="17" lengthAdjust="spacing" textLength="116" x="84" y="875.5098">gcp_disk_type</text></g><!--class gcp_resource--><g id="elem_gcp_resource"><rect codeLine="26" fill="#3D176E" height="39.7891" id="gcp_resource" rx="2.5" ry="2.5" style="stroke:#000D19;stroke-width:0.5;" width="150" x="7" y="267.57"/><ellipse cx="22" cy="287.4645" fill="#ADD1B2" rx="11" ry="11" style="stroke:#181818;stroke-width:1.0;"/><path d="M24.9688,293.1052 Q24.3906,293.402 23.75,293.5427 Q23.1094,293.6989 22.4063,293.6989 Q19.9063,293.6989 18.5781,292.0583 Q17.2656,290.402 17.2656,287.277 Q17.2656,284.152 18.5781,282.4958 Q19.9063,280.8395 22.4063,280.8395 Q23.1094,280.8395 23.75,280.9958 Q24.4063,281.152 24.9688,281.4489 L24.9688,284.1677 Q24.3438,283.5895 23.75,283.3239 Q23.1563,283.0427 22.5313,283.0427 Q21.1875,283.0427 20.5,284.1208 Q19.8125,285.1833 19.8125,287.277 Q19.8125,289.3708 20.5,290.4489 Q21.1875,291.5114 22.5313,291.5114 Q23.1563,291.5114 23.75,291.2458 Q24.3438,290.9645 24.9688,290.3864 L24.9688,293.1052 Z " fill="#000000"/><text fill="#D9B8FF" font-family="Helvetica" font-size="17" lengthAdjust="spacing" textLength="108" x="41" y="293.3498">gcp_resource</text></g><!--class phantom_resource--><g id="elem_phantom_resource"><rect codeLine="29" fill="#3D176E" height="39.7891" id="phantom_resource" rx="2.5" ry="2.5" style="stroke:#000D19;stroke-width:0.5;" width="198" x="129" y="167.79"/><ellipse cx="144" cy="187.6845" fill="#ADD1B2" rx="11" ry="11" style="stroke:#181818;stroke-width:1.0;"/><path d="M146.9688,193.3252 Q146.3906,193.622 145.75,193.7627 Q145.1094,193.9189 144.4063,193.9189 Q141.9063,193.9189 140.5781,192.2783 Q139.2656,190.622 139.2656,187.497 Q139.2656,184.372 140.5781,182.7158 Q141.9063,181.0595 144.4063,181.0595 Q145.1094,181.0595 145.75,181.2158 Q146.4063,181.372 146.9688,181.6689 L146.9688,184.3877 Q146.3438,183.8095 145.75,183.5439 Q145.1563,183.2627 144.5313,183.2627 Q143.1875,183.2627 142.5,184.3408 Q141.8125,185.4033 141.8125,187.497 Q141.8125,189.5908 142.5,190.6689 Q143.1875,191.7314 144.5313,191.7314 Q145.1563,191.7314 145.75,191.4658 Q146.3438,191.1845 146.9688,190.6064 L146.9688,193.3252 Z " fill="#000000"/><text fill="#D9B8FF" font-family="Helvetica" font-size="17" lengthAdjust="spacing" textLength="156" x="163" y="193.5698">phantom_resource</text></g><!--class quota--><g id="elem_quota"><rect codeLine="32" fill="#3D176E" height="39.7891" id="quota" rx="2.5" ry="2.5" style="stroke:#000D19;stroke-width:0.5;" width="90" x="179" y="367.36"/><ellipse cx="194" cy="387.2545" fill="#ADD1B2" rx="11" ry="11" style="stroke:#181818;stroke-width:1.0;"/><path d="M196.9688,392.8952 Q196.3906,393.192 195.75,393.3327 Q195.1094,393.4889 194.4063,393.4889 Q191.9063,393.4889 190.5781,391.8483 Q189.2656,390.192 189.2656,387.067 Q189.2656,383.942 190.5781,382.2858 Q191.9063,380.6295 194.4063,380.6295 Q195.1094,380.6295 195.75,380.7858 Q196.4063,380.942 196.9688,381.2389 L196.9688,383.9577 Q196.3438,383.3795 195.75,383.1139 Q195.1563,382.8327 194.5313,382.8327 Q193.1875,382.8327 192.5,383.9108 Q191.8125,384.9733 191.8125,387.067 Q191.8125,389.1608 192.5,390.2389 Q193.1875,391.3014 194.5313,391.3014 Q195.1563,391.3014 195.75,391.0358 Q196.3438,390.7545 196.9688,390.1764 L196.9688,392.8952 Z " fill="#000000"/><text fill="#D9B8FF" font-family="Helvetica" font-size="17" lengthAdjust="spacing" textLength="48" x="213" y="393.1398">quota</text></g><!--class resource--><g id="elem_resource"><rect codeLine="35" fill="#3D176E" height="39.7891" id="resource" rx="2.5" ry="2.5" style="stroke:#000D19;stroke-width:0.5;" width="113" x="54.5" y="7"/><ellipse cx="69.5" cy="26.8945" fill="#ADD1B2" rx="11" ry="11" style="stroke:#181818;stroke-width:1.0;"/><path d="M72.4688,32.5352 Q71.8906,32.832 71.25,32.9727 Q70.6094,33.1289 69.9063,33.1289 Q67.4063,33.1289 66.0781,31.4883 Q64.7656,29.832 64.7656,26.707 Q64.7656,23.582 66.0781,21.9258 Q67.4063,20.2695 69.9063,20.2695 Q70.6094,20.2695 71.25,20.4258 Q71.9063,20.582 72.4688,20.8789 L72.4688,23.5977 Q71.8438,23.0195 71.25,22.7539 Q70.6563,22.4727 70.0313,22.4727 Q68.6875,22.4727 68,23.5508 Q67.3125,24.6133 67.3125,26.707 Q67.3125,28.8008 68,29.8789 Q68.6875,30.9414 70.0313,30.9414 Q70.6563,30.9414 71.25,30.6758 Q71.8438,30.3945 72.4688,29.8164 L72.4688,32.5352 Z " fill="#000000"/><text fill="#D9B8FF" font-family="Helvetica" font-size="17" lengthAdjust="spacing" textLength="71" x="88.5" y="32.7798">resource</text></g><!--class type--><g id="elem_type"><rect codeLine="38" fill="#3D176E" height="39.7891" id="type" rx="2.5" ry="2.5" style="stroke:#000D19;stroke-width:0.5;" width="79" x="183.5" y="528.15"/><ellipse cx="198.5" cy="548.0445" fill="#ADD1B2" rx="11" ry="11" style="stroke:#181818;stroke-width:1.0;"/><path d="M201.4688,553.6852 Q200.8906,553.982 200.25,554.1227 Q199.6094,554.2789 198.9063,554.2789 Q196.4063,554.2789 195.0781,552.6383 Q193.7656,550.982 193.7656,547.857 Q193.7656,544.732 195.0781,543.0758 Q196.4063,541.4195 198.9063,541.4195 Q199.6094,541.4195 200.25,541.5758 Q200.9063,541.732 201.4688,542.0289 L201.4688,544.7477 Q200.8438,544.1695 200.25,543.9039 Q199.6563,543.6227 199.0313,543.6227 Q197.6875,543.6227 197,544.7008 Q196.3125,545.7633 196.3125,547.857 Q196.3125,549.9508 197,551.0289 Q197.6875,552.0914 199.0313,552.0914 Q199.6563,552.0914 200.25,551.8258 Q200.8438,551.5445 201.4688,550.9664 L201.4688,553.6852 Z " fill="#000000"/><text fill="#D9B8FF" font-family="Helvetica" font-size="17" lengthAdjust="spacing" textLength="37" x="217.5" y="553.9298">type</text></g><!--class volume_type--><g id="elem_volume_type"><rect codeLine="41" fill="#3D176E" height="39.7891" id="volume_type" rx="2.5" ry="2.5" style="stroke:#000D19;stroke-width:0.5;" width="151" x="146.5" y="688.94"/><ellipse cx="161.5" cy="708.8345" fill="#ADD1B2" rx="11" ry="11" style="stroke:#181818;stroke-width:1.0;"/><path d="M164.4688,714.4752 Q163.8906,714.772 163.25,714.9127 Q162.6094,715.0689 161.9063,715.0689 Q159.4063,715.0689 158.0781,713.4283 Q156.7656,711.772 156.7656,708.647 Q156.7656,705.522 158.0781,703.8658 Q159.4063,702.2095 161.9063,702.2095 Q162.6094,702.2095 163.25,702.3658 Q163.9063,702.522 164.4688,702.8189 L164.4688,705.5377 Q163.8438,704.9595 163.25,704.6939 Q162.6563,704.4127 162.0313,704.4127 Q160.6875,704.4127 160,705.4908 Q159.3125,706.5533 159.3125,708.647 Q159.3125,710.7408 160,711.8189 Q160.6875,712.8814 162.0313,712.8814 Q162.6563,712.8814 163.25,712.6158 Q163.8438,712.3345 164.4688,711.7564 L164.4688,714.4752 Z " fill="#000000"/><text fill="#D9B8FF" font-family="Helvetica" font-size="17" lengthAdjust="spacing" textLength="109" x="180.5" y="714.7198">volume_type</text></g><!--reverse link gcp_resource to gcp_disk_type--><g id="link_gcp_resource_gcp_disk_type"><path codeLine="44" d="M86.0369,325.6408 C89.4869,358.3708 94,409.01 94,467.15 C94,467.15 94,467.15 94,709.84 C94,761.21 111.69,819.8 121.92,849.37 " fill="none" id="gcp_resource-backto-gcp_disk_type" style="stroke:#FFAF37;stroke-width:2.0;"/><polygon fill="none" points="84.15,307.74,80.0699,326.2698,92.0038,325.0119,84.15,307.74" style="stroke:#FFAF37;stroke-width:2.0;"/></g><!--reverse link volume_type to gcp_disk_type--><g id="link_volume_type_gcp_disk_type"><path codeLine="45" d="M201.685,744.5232 C183.815,775.0432 158.16,818.84 140.26,849.4 " fill="none" id="volume_type-backto-gcp_disk_type" style="stroke:#FFAF37;stroke-width:2.0;"/><polygon fill="none" points="210.78,728.99,196.5073,741.4916,206.8628,747.5549,210.78,728.99" style="stroke:#FFAF37;stroke-width:2.0;"/></g><!--reverse link resource to gcp_resource--><g id="link_resource_gcp_resource"><path codeLine="46" d="M106.8641,64.7879 C101.5141,112.4979 89.57,218.97 84.17,267.08 " fill="none" id="resource-backto-gcp_resource" style="stroke:#FFAF37;stroke-width:2.0;"/><polygon fill="none" points="108.87,46.9,100.9015,64.1193,112.8268,65.4565,108.87,46.9" style="stroke:#FFAF37;stroke-width:2.0;"/></g><!--reverse link resource to phantom_resource--><g id="link_resource_phantom_resource"><path codeLine="47" d="M135.7881,61.5306 C158.2781,92.0506 191.32,136.9 213.84,167.46 " fill="none" id="resource-backto-phantom_resource" style="stroke:#FFAF37;stroke-width:2.0;"/><polygon fill="none" points="125.11,47.04,130.9579,65.09,140.6183,57.9713,125.11,47.04" style="stroke:#FFAF37;stroke-width:2.0;"/></g><!--reverse link phantom_resource to quota--><g id="link_phantom_resource_quota"><path codeLine="48" d="M227.2432,225.9763 C226.4732,263.7563 225.16,329.04 224.39,366.88 " fill="none" id="phantom_resource-backto-quota" style="stroke:#FFAF37;stroke-width:2.0;"/><polygon fill="none" points="227.61,207.98,221.2445,225.854,233.242,226.0985,227.61,207.98" style="stroke:#FFAF37;stroke-width:2.0;"/></g><!--reverse link quota to type--><g id="link_quota_type"><path codeLine="49" d="M223.7679,425.4097 C223.5779,455.9297 223.31,497.26 223.12,527.83 " fill="none" id="quota-backto-type" style="stroke:#FFAF37;stroke-width:2.0;"/><polygon fill="none" points="223.88,407.41,217.7681,425.3723,229.7678,425.447,223.88,407.41" style="stroke:#FFAF37;stroke-width:2.0;"/></g><!--reverse link type to volume_type--><g id="link_type_volume_type"><path codeLine="50" d="M222.7679,586.1997 C222.5779,616.7197 222.31,658.05 222.12,688.61 " fill="none" id="type-backto-volume_type" style="stroke:#FFAF37;stroke-width:2.0;"/><polygon fill="none" points="222.88,568.2,216.7681,586.1623,228.7678,586.237,222.88,568.2" style="stroke:#FFAF37;stroke-width:2.0;"/></g><!--SRC=[XP3DRi8m48JlVWfBd2D1KGj8lL2aghsWglIEJBmcLc8xNMz0zEVTsv1IEKw0wyndpyncMW87KzA16p0RGCzyhcqfK1W-HtJxXIiSye5IGeqdiVdeB5q5bi80Vu9Y1wHJ4HDlcKvp2zxpcy1w46c-HLTPsNnFAAp_jS1IG2qAuVsS2FMc8WZAoDbcgbHCnfyEnd8qkOCEvb02_Y73uL2EPZ5oDUhYxdzYfJ-0ZyAZBHr1fsOduaXTR5aJGSdEq9D_jkEBa5BRBRyDjDUc4rh0bhxAX7JxcbQYy66C9q1mT2XXqLa5iwbKarxu-HpCqlfqV9kMQwbzlgvX_idOTs0WU5TXsjBBJ5XofjTxhno9KEY3ug2TAoe3GNuh-VuhIP9sInQ-wFDx7f-as8lNiCwyXZikOys-HZac1HM2Kkm7]--></g></svg>

<svg xmlns="http://www.w3.org/2000/svg" width="334" height="895" viewBox="0 0 334 895"><rect width="158" height="39.789" x="50" y="849.73" fill="#3D176E" rx="2.5" ry="2.5" style="stroke:#000d19;stroke-width:.5"/><circle cx="65" cy="869.625" r="11" fill="#ADD1B2" style="stroke:#181818;stroke-width:1"/><path d="M67.969 875.265q-.578.297-1.219.438-.64.156-1.344.156-2.5 0-3.828-1.64-1.312-1.657-1.312-4.782t1.312-4.781Q62.906 863 65.406 863q.703 0 1.344.156.656.156 1.219.453v2.719q-.625-.578-1.219-.844-.594-.281-1.219-.281-1.344 0-2.031 1.078-.687 1.062-.687 3.156t.687 3.172q.688 1.062 2.031 1.062.625 0 1.219-.265.594-.281 1.219-.86z"/><text x="84" y="875.51" fill="#D9B8FF" font-family="Helvetica" font-size="17" textLength="116">gcp_disk_type</text><rect width="150" height="39.789" x="7" y="267.57" fill="#3D176E" rx="2.5" ry="2.5" style="stroke:#000d19;stroke-width:.5"/><circle cx="22" cy="287.464" r="11" fill="#ADD1B2" style="stroke:#181818;stroke-width:1"/><path d="M24.969 293.105q-.578.297-1.219.438-.64.156-1.344.156-2.5 0-3.828-1.64-1.312-1.657-1.312-4.782t1.312-4.781q1.328-1.656 3.828-1.656.703 0 1.344.156.656.156 1.219.453v2.719q-.625-.579-1.219-.844-.594-.281-1.219-.281-1.343 0-2.031 1.078-.687 1.062-.687 3.156t.687 3.172q.688 1.062 2.031 1.062.625 0 1.219-.265.594-.281 1.219-.86z"/><text x="41" y="293.35" fill="#D9B8FF" font-family="Helvetica" font-size="17" textLength="108">gcp_resource</text><rect width="198" height="39.789" x="129" y="167.79" fill="#3D176E" rx="2.5" ry="2.5" style="stroke:#000d19;stroke-width:.5"/><circle cx="144" cy="187.685" r="11" fill="#ADD1B2" style="stroke:#181818;stroke-width:1"/><path d="M146.969 193.325q-.578.297-1.219.438-.64.156-1.344.156-2.5 0-3.828-1.64-1.312-1.657-1.312-4.782t1.312-4.781q1.328-1.656 3.828-1.656.703 0 1.344.156.656.156 1.219.453v2.719q-.625-.578-1.219-.844-.594-.281-1.219-.281-1.344 0-2.031 1.078-.687 1.062-.687 3.156t.687 3.172q.688 1.062 2.031 1.062.625 0 1.219-.265.594-.281 1.219-.86z"/><text x="163" y="193.57" fill="#D9B8FF" font-family="Helvetica" font-size="17" textLength="156">phantom_resource</text><rect width="90" height="39.789" x="179" y="367.36" fill="#3D176E" rx="2.5" ry="2.5" style="stroke:#000d19;stroke-width:.5"/><circle cx="194" cy="387.255" r="11" fill="#ADD1B2" style="stroke:#181818;stroke-width:1"/><path d="M196.969 392.895q-.578.297-1.219.438-.64.156-1.344.156-2.5 0-3.828-1.64-1.312-1.657-1.312-4.782t1.312-4.781q1.328-1.656 3.828-1.656.703 0 1.344.156.656.156 1.219.453v2.719q-.625-.579-1.219-.844-.594-.281-1.219-.281-1.344 0-2.031 1.078-.687 1.062-.687 3.156t.687 3.172q.688 1.062 2.031 1.062.625 0 1.219-.265.594-.281 1.219-.86z"/><text x="213" y="393.14" fill="#D9B8FF" font-family="Helvetica" font-size="17" textLength="48">quota</text><rect width="113" height="39.789" x="54.5" y="7" fill="#3D176E" rx="2.5" ry="2.5" style="stroke:#000d19;stroke-width:.5"/><circle cx="69.5" cy="26.895" r="11" fill="#ADD1B2" style="stroke:#181818;stroke-width:1"/><path d="M72.469 32.535q-.578.297-1.219.438-.64.156-1.344.156-2.5 0-3.828-1.64-1.312-1.657-1.312-4.782t1.312-4.781q1.328-1.656 3.828-1.656.703 0 1.344.156.656.156 1.219.453v2.719q-.625-.578-1.219-.844-.594-.281-1.219-.281-1.344 0-2.031 1.078-.687 1.062-.687 3.156T68 29.879q.688 1.062 2.031 1.062.625 0 1.219-.265.594-.281 1.219-.86z"/><text x="88.5" y="32.78" fill="#D9B8FF" font-family="Helvetica" font-size="17" textLength="71">resource</text><rect width="79" height="39.789" x="183.5" y="528.15" fill="#3D176E" rx="2.5" ry="2.5" style="stroke:#000d19;stroke-width:.5"/><circle cx="198.5" cy="548.044" r="11" fill="#ADD1B2" style="stroke:#181818;stroke-width:1"/><path d="M201.469 553.685q-.578.297-1.219.438-.64.156-1.344.156-2.5 0-3.828-1.64-1.312-1.657-1.312-4.782t1.312-4.781q1.328-1.657 3.828-1.657.703 0 1.344.157.656.156 1.219.453v2.719q-.625-.579-1.219-.844-.594-.281-1.219-.281-1.344 0-2.031 1.078-.687 1.062-.687 3.156t.687 3.172q.688 1.062 2.031 1.062.625 0 1.219-.265.594-.282 1.219-.86z"/><text x="217.5" y="553.93" fill="#D9B8FF" font-family="Helvetica" font-size="17" textLength="37">type</text><rect width="151" height="39.789" x="146.5" y="688.94" fill="#3D176E" rx="2.5" ry="2.5" style="stroke:#000d19;stroke-width:.5"/><circle cx="161.5" cy="708.835" r="11" fill="#ADD1B2" style="stroke:#181818;stroke-width:1"/><path d="M164.469 714.475q-.578.297-1.219.438-.64.156-1.344.156-2.5 0-3.828-1.64-1.312-1.657-1.312-4.782t1.312-4.781q1.328-1.656 3.828-1.656.703 0 1.344.156.656.156 1.219.453v2.719q-.625-.578-1.219-.844-.594-.281-1.219-.281-1.344 0-2.031 1.078-.687 1.062-.687 3.156t.687 3.172q.688 1.062 2.031 1.062.625 0 1.219-.265.594-.281 1.219-.86z"/><text x="180.5" y="714.72" fill="#D9B8FF" font-family="Helvetica" font-size="17" textLength="109">volume_type</text><g fill="none"><path d="M86.037 325.64C89.487 358.37 94 409.01 94 467.15v242.69c0 51.37 17.69 109.96 27.92 139.53" style="stroke:#ffaf37;stroke-width:2"/><path d="m84.15 307.74-4.08 18.53 11.934-1.258z" style="stroke:#ffaf37;stroke-width:2"/></g><g fill="none"><path d="M201.685 744.523c-17.87 30.52-43.525 74.317-61.425 104.877" style="stroke:#ffaf37;stroke-width:2"/><path d="m210.78 728.99-14.273 12.502 10.356 6.063z" style="stroke:#ffaf37;stroke-width:2"/></g><g fill="none"><path d="M106.864 64.788c-5.35 47.71-17.294 154.182-22.694 202.292" style="stroke:#ffaf37;stroke-width:2"/><path d="m108.87 46.9-7.969 17.22 11.926 1.337z" style="stroke:#ffaf37;stroke-width:2"/></g><g fill="none"><path d="M135.788 61.53c22.49 30.52 55.532 75.37 78.052 105.93" style="stroke:#ffaf37;stroke-width:2"/><path d="m125.11 47.04 5.848 18.05 9.66-7.119z" style="stroke:#ffaf37;stroke-width:2"/></g><path fill="none" d="M227.243 225.976c-.77 37.78-2.083 103.064-2.853 140.904m3.22-158.9-6.366 17.874 11.998.244zm-3.842 217.43c-.19 30.52-.458 71.85-.648 102.42m.76-120.42-6.112 17.962 12 .075zm-1.112 178.79c-.19 30.52-.458 71.85-.648 102.41m.76-120.41-6.112 17.962 12 .075z" style="stroke:#ffaf37;stroke-width:2"/></svg>
